src/icons/svgs/24/house.svg

<svg width="24" height="24" viewBox="0 0 24 24" fill="none" xmlns="http://www.w3.org/2000/svg">
<path d="M22.7088 11.539L12.6443 3.21179C12.4378 3.07019 12.2274 3 12.017 3C11.8066 3 11.5618 3.07019 11.424 3.21074L1.32404 11.539C1.11005 11.7137 1 11.9665 1 12.1858C1 12.7817 1.52369 13.078 1.91846 13.078C2.12824 13.078 2.33925 13.0087 2.51215 12.8666L3.44821 12.1263L3.44837 19.0595C3.44844 20.7019 4.8186 22 6.50864 22H17.4912C19.1812 22 20.517 20.6684 20.5514 19.0595L20.5514 12.1263L21.4875 12.8981C21.6533 13.0347 21.8637 13.1096 22.0812 13.1095C22.4698 13.1095 23 12.811 23 12.2173C22.9995 11.9665 22.923 11.7137 22.7088 11.539ZM13.8187 20.2156H10.1808V14.8959H13.8187V20.2156ZM18.7151 19.026C18.7151 19.6803 18.1643 20.2156 17.491 20.2156H15.6893V14.5985C15.6893 13.7784 15.003 13.1115 14.1592 13.1115H9.87478C9.02938 13.1115 8.34464 13.7769 8.34464 14.5985V20.2156H6.50848C5.83522 20.2156 5.28438 19.6803 5.28438 19.026V10.6988C5.28438 10.663 5.26762 10.6325 5.26337 10.5978L11.9825 5.06161L18.6807 10.6155V19.026H18.7151Z" fill="black"/>
</svg>

<svg width="24" height="24" viewBox="0 0 24 24" xmlns="http://www.w3.org/2000/svg">
    <path d="M22.709 11.539 12.644 3.212A1.102 1.102 0 0 0 12.017 3c-.21 0-.455.07-.593.21l-10.1 8.329a.863.863 0 0 0-.324.647c0 .596.524.892.918.892.21 0 .421-.07.594-.211l.936-.74v6.932c0 1.643 1.37 2.941 3.06 2.941h10.983c1.69 0 3.026-1.332 3.06-2.94v-6.934l.937.772a.933.933 0 0 0 .593.212c.389 0 .919-.299.919-.893 0-.25-.077-.503-.291-.678zm-8.89 8.677H10.18v-5.32h3.638v5.32zm4.896-1.19c0 .654-.55 1.19-1.224 1.19h-1.802v-5.618c0-.82-.686-1.487-1.53-1.487H9.875c-.846 0-1.53.666-1.53 1.487v5.618H6.508c-.673 0-1.224-.536-1.224-1.19v-8.327c0-.036-.016-.066-.02-.101l6.718-5.536 6.699 5.554v8.41h.034z"/>
</svg>
